X:1
T:Sonata für Altposaune und Basso Continuo
T:Sonata für Altposaune und Basso Continuo
T:Anonymous 
T:ca. 1670
T:Rekonstruktion: Fritz Brodersen - Hamburg
C:Anonymous
%%score 1 { ( 2 4 5 ) | 3 }
L:1/8
Q:1/4=88
M:2/2
K:C
V:1 alto nm="Alt-Pos."
V:2 treble nm="Cembalo"
V:4 treble 
V:5 treble 
V:3 bass 
V:1
"^Maestoso\n""^A" D4 D4 | E3 D/E/ F2 D2 | EC EC DEFG | A/_B/A/G/ FD EA, DG, | CF, F,E, F,A, CA, | %5
 G,B, DB, A,C EC | DE/F/ GF E2 A2- | A2 _A2 =A4 | FGAF EDEC | D/C/D/E/ FF FE/D/ E2 | FAGF GCEG | %11
 FD FG/F/ EA/F/ EA | C/E/D/E/ CE F/A/G/A/ FA | c_BBA AG/A/ F2 | AGGF FE/F/ D2 | FE/D/ ^CD DC D2 | %16
!p! FE/D/ ^CD DC D2 ::[Q:1/4=144]"^Allegro""^B" z8 |!mf! DDDE F4 | FE/D/ E2 FAAA | GFGE FFFF | %21
 E2 C2 D2 G2 | C2 F2 FE/D/ E2 | FA,A,B, C2 C2 | CB,/A,/ B,2 CEEF | G4 G2 ^F2 | GDDE F4 | ECEF G4 | %28
 FDFG A4 | A2 ^G2 AEA=G | ^F4 GDG=F | E4 FCFE | DCDE F4 | F2 E2 F2 D2- | D2 ^C2 D2 G2- | G2 F2 E4 | %36
 D8 ::[M:3/2]"^C" D4 D4 E4[Q:1/4=164]"^Mäßig im Tempo" | F4 F4 C4 | D4 C4 _B,4 | A,4 _B,4 C4 | %41
 _B,2 A,2 G,8 | F,12 | F,4 A,4 B,4 | C12 | _B,4 A,4 B,2 C2 | D12 | C4 A,4 C2 D2 | E12 | D4 D4 E4 | %50
 F12 | E8 F4 | F8 E4 | F12 | z2 A2 A2 A2 FAGF | G2 G2 G2 G2 EGFE | F2 F2 F2 F2 DFED | E4 E4 C4 | %58
 D2 C2 D2 E2 F4 | _B2 A2 G8 |1 F12 :|2 F4 A8 |: G6 F2 E2 D2 | ^C4 A,4 E4 | F12 | E4 E8 | D12 :: %67
[M:6/4]"^D"[Q:1/4=240]"^Allegro (Leicht)" z12 | F4 F2 E2 D2 C2 | D2 E2 F2 F4 E2 | F4 A2 G2 F2 E2 | %71
 F4 F2 E2 D2 C2 | D4 G2 C2 DE F2 | F2 ED E2 F4 A2 | G2 GF E2 F4 F2 | E2 ED C2 D2 GFED | %76
 C4 c2 _B2 A2 G2 | A4 A2 G2 F2 E2 | F2 E2 D2 ^C4 D2 | D4 ^C2 !fermata!D6 :| %80
V:2
 [F,A,D]4 [A,DF]4 | [A,EA]4 [DFA]4 | [EA]4 [FA]2 G2 | [^CEA]2 [DFA]2 A2- AG | F2- FE F2 [FAc]2 | %5
 [DGB]4 [CEA]2 [EAc]2 | B4 [EA]4- | [EA]2 ^G2 [EA]4 | [DF]4 G3 A | [DF]2 F4 E2 | [A,CF]4 [G,CG]4 | %11
 [A,DF]4 ([CEA]4 | [CEG]4) [A,DF]2 [FAd]2 | c2 _B2 [FA]4 | A2 G2 F4 | %15
 [A,DF][CEG] [^CEA][DFA] [DE_B][CEA] [DFA]2 |!p! [A,DF][CEG] [^CEA][DFA] [DE_B][CEA] [DFA]2 :: %17
!mf! [DF]4 G3 A | F4 F4 | F2 E2 F2 [Ac]2 | [Gc]4 [FA]4 | A4 F2 G2 | F4 F2 E2 | [CF]4 [CG]2 [Gc]2- | %24
 [Gc]2 B4 A2- | A2 G4 ^F2 | [DG]4 [CF]4 | [CE]4 [DG]4 | [DF]2 [FA]2 [EA]4 | [FA]2 [E_A]2 [E=A]4 | %30
 [D^F]4 [DG]4 | [CE]4 [CF]4 | [DF]4 F4 | F2 E2 F2 D2 | [G,E]4 [A,DF]2 [_B,D]2- | %35
 [B,D]2 [DG]2 [A,E]4 | [F,A,D]8 ::[M:3/2] [DFA]8 [A,EA]4 | [DFA]8 [CF]4 | [_B,DG]4 [CF]4 [B,EG]4 | %40
 [CFA]12 | G2 F2 F6 E2 | [A,CF]12 | [CFA]12 | [CGc]12 | [DG_B]12 | [DA]4 [A,DF]4 [DA]2 z2 | %47
 [CEA]12 | [B,EB]4 [B,EG]4 [B,EB]2 [CEA]2 | [DF]12 | [CFA]8 [CFc]2 [DF_B]2 | [EG]4 [EGc]4 [Fc]4 | %52
 [FAc]4 [Gc]4 [Gc]4 | [CFA]12 | [CFA]12 | [CGc]12 | [FAd]12 | [Gce]4 [Gce]4 [Fcf]4 | %58
 [F_Bd]8 [FAc]4 | [F_Bd]4 [Gc]8 |1 [FAc]12 :|2 [FAc]4 [FAc]8 |: [DG_B]12 | [^CEA]12 | %64
 [DFA]8 [DG]4 | [DG_B]4 [EA]8 | [DFA]12 ::[M:6/4] D4 A2 G2 F2 E2 | [DF]4 [DF]2 G4 A2 | %69
 [DF]4 [CF]2 F4 E2 | [A,CF]6 [CGc]4 [EGc]2 | [DFA]6 [EGc]6 | [F_Bd]6 [Fc]6 | _B6 [FA]6 | %74
 [CGc]6 c4 B2 | [Gc]4 [Ac]2 [F_B]6 | [Fc]6 _B6 | [FA]6 G6 | [DF]4 [DG]2 [^CEA]4 [G,DG]2 | %79
 G2 E4 !fermata![D^F]6 :| %80
V:3
 D,8 | ^C,4 D,4 | C,4 _B,,4 | A,,2 D,2 C,2 _B,,2 | A,,2 G,,2 F,,4 | G,,4 A,,4 | B,,4 C,4 | %7
 B,,4 A,,B,,^C,A,, | D,4 C,_B,,C,A,, | _B,,2 A,,2 G,,4 | F,,4 E,4 | D,4 C,4- | C,4 D,4 | E,4 F,4 | %14
 ^C,4 D,4 | D,C,/_B,,/ A,,F,, G,,A,, D,2 |!p! D,C,/_B,,/ A,,F,, G,,A,, D,2 :: %17
 D,D,D,D, C,_B,,C,A,, | _B,,4 A,,G,,A,,F,, | G,,4 F,,4 | E,D,E,C, D,4 | C,_B,,C,A,, B,,4 | %22
 A,,G,,A,,F,, G,,4 | F,,4 E,D,E,C, | D,4 C,4 | B,,A,,B,,G,, A,,4 | G,,4 A,,A,,A,,B,, | %27
 C,4 B,,G,,B,,C, | D,4 A,2 C,2 | D,2 E,2 A,,4 | D,A,,D,C, B,,4 | C,G,,C,_B,, A,,4 | %32
 _B,,4 A,,G,,A,,F,, | G,,4 F,,2 F,2 | E,4 D,2 G,,2- | G,,2 G,,2 A,,4 | D,8 ::[M:3/2] D,8 ^C,4 | %38
 D,8 A,,4 | _B,,4 A,,4 G,,4 | F,,4 G,,4 A,,4 | _B,,4 C,8 | F,,12 | F,,12 | E,4 D,4 E,2 F,2 | G,12 | %46
 F,4 D,4 F,2 G,2 | A,12 | G,4 E,4 G,2 A,2 | _B,12 | A,4 F,4 A,2 _B,2 | C8 A,4 | F,4 C,8 | F,,12 | %54
 F,12 | E,12 | D,12 | C,4 C,4 A,,4 | _B,,8 A,,4 | _B,,4 C,8 |1 F,,12 :|2 F,,4 F,,8 |: G,,12 | %63
 A,,12 | D,8 _B,,4 | G,,4 A,,8 | D,12 ::[M:6/4] z12 | F4 F2 E2 D2 C2 | _B,4 A,2 G,6 | %70
 F,4 F,2 E,2 D,2 C,2 | D,4 D,2 C,2 _B,,2 A,,2 | _B,,6 A,,6 | G,,6 F,,6 | E,2 E,D, C,2 D,6 | %75
 C,2 C,_B,, A,,2 B,,6 | %76
"_Dieser Notentext wurde im Juni 2019 auf IMSLP gefunden und digitalisiert.\nEs wurde dabei penibel auf die Übertragung geachtet, um keine neuen Fehler einzubrigen oder Elemente,\nwie etwa den Generalbass, zu vergessen.\n""_Hamburg, im Juni 1978. Fritz Brodersen.""_Diese Sonate eines unbekannten Tschechischen Komponisten wurde mir in einem Fotopositiv von fünf\nBildern im Jahre 1974 von einem Pastoren aus Auma geschenkt. Die Rekonstruktion des zum Teil\nsehr unleserlichen, fehlerhaften uns ausgebesserten Originals wurde korrigiert.\nDie Generalbassaussetzung wurde von mir nach dem sehr spärlich bezifferten Original vorgenommen.\n\n" A,,6 G,,6 | %77
 F,4 F,2 E,2 D,2 C,2 | D,2 C,2 _B,,2 A,,4 B,,2 | G,,2 A,,4 !fermata!D,6 :| %80
V:4
 x8 | x8 | A,4 D4 | x4 E2 D2 | C2 _B,2 [A,C]2 x2 | x8 | [DF]4 C4 | E4 ^CDEC | A,4 [CE]4 | %9
 _B,2 C2 B,4 | x8 | x8 | x8 | [CG]4 C4 | [A,E]4 [A,D]4 | x8 | x8 :: A,4 [CE]4 | [_B,D]4 C4 | %19
 [G,_B,]4 [A,C]2 F2 | C4 D4 | E4 [_B,D]4 | C4 [G,_B,]4 | A,4 G,2 E2 | F4 E4 | D4 C4 | B,4 A,4 | %27
 G,4 G,4 | A,2 D2 C2 E2 | D2 B,2 ^C4 | A,4 G,4 | G,4 A,4 | _B,4 C4 | [G,_B,]4 A,4 | %34
 D2 ^C2 x2 G,2- | G,2 _B,2 D2 ^C2 | x8 ::[M:3/2] x12 | x12 | x12 | x12 | _B,4 [G,C]8 | z12 | x12 | %44
 x12 | x12 | x12 | x12 | x12 | x12 | x12 | x12 | x4 F6 E2 | x12 | x12 | x12 | x12 | x12 | x12 | %59
 x4 F6 E2 |1 x12 :|2 x12 |: x12 | x12 | x12 | x4 D6 ^C2 | x12 ::[M:6/4] x12 | x6 C2 _B,2 A,2 | %69
 x6 _B,6 | x12 | x12 | x12 | [DF]4 [_B,E]2 C6 | x6 [DF]6 | E4 F2 D6 | x6 [DF]4 [_B,E]2 | %77
 C6 [G,C]4 [CE]2 | A,4 x8 | [_B,D]2 [A,D]2 [A,^C]2 A,6 :| %80
V:5
 x8 | x8 | x8 | x8 | x8 | x8 | x8 | x8 | x8 | x8 | x8 | x8 | x8 | x8 | x8 | x8 | x8 :: x8 | x8 | %19
 x8 | x8 | x8 | x8 | x8 | x8 | x8 | x8 | x8 | x8 | x8 | x8 | x8 | x8 | x8 | x8 | x8 | x8 :: %37
[M:3/2] x12 | x12 | x12 | x12 | x12 | x12 | x12 | x12 | x12 | x10 [DG_B]2 | x12 | x12 | x12 | x12 | %51
 x12 | x12 | x12 | x12 | x12 | x12 | x12 | x12 | x12 |1 x12 :|2 x12 |: x12 | x12 | x12 | x12 | %66
 x12 ::[M:6/4] x12 | x12 | x12 | x12 | x12 | x12 | x12 | x12 | x12 | x12 | x12 | x12 | x12 :| %80

